common/src/main/resources/glyphs/other/abstractAspect.svg

<svg xmlns="http://www.w3.org/2000/svg" width="16" height="16" fill="#AED581" data-big="true" viewBox="0 0 24 24"><path d="M11 13.5v8H3v-8zm-2 2H5v4h4zM12 2l5.5 9h-11zm0 3.86L10.08 9h3.84zM17.5 13c2.5 0 4.5 2 4.5 4.5S20 22 17.5 22 13 20 13 17.5s2-4.5 4.5-4.5m0 2a2.5 2.5 0 0 0-2.5 2.5 2.5 2.5 0 0 0 2.5 2.5 2.5 2.5 0 0 0 2.5-2.5 2.5 2.5 0 0 0-2.5-2.5"/></svg>

<!--
  - The MIT License (MIT)
  -
  - Copyright (c) 2015-2024 Elior "Mallowigi" Boukhobza
  -
  - Permission is hereby granted, free of charge, to any person obtaining a copy
  - of this software and associated documentation files (the "Software"), to deal
  - in the Software without restriction, including without limitation the rights
  - to use, copy, modify, merge, publish, distribute, sublicense, and/or sell
  - copies of the Software, and to permit persons to whom the Software is
  - furnished to do so, subject to the following conditions:
  -
  - The above copyright notice and this permission notice shall be included in all
  - copies or substantial portions of the Software.
  -
  - THE SOFTWARE IS PROVIDED "AS IS", WITHOUT WARRANTY OF ANY KIND, EXPRESS OR
  - IMPLIED, INCLUDING BUT NOT LIMITED TO THE WARRANTIES OF MERCHANTABILITY,
  - FITNESS FOR A PARTICULAR PURPOSE AND NONINFRINGEMENT. IN NO EVENT SHALL THE
  - AUTHORS OR COPYRIGHT HOLDERS BE LIABLE FOR ANY CLAIM, DAMAGES OR OTHER
  - LIABILITY, WHETHER IN AN ACTION OF CONTRACT, TORT OR OTHERWISE, ARISING FROM,
  - OUT OF OR IN CONNECTION WITH THE SOFTWARE OR THE USE OR OTHER DEALINGS IN THE
  - SOFTWARE.
  -->


<svg data-big="true" xmlns="http://www.w3.org/2000/svg" version="1.1" width="16px" height="16px" viewBox="0 0 24 24"
     fill="#AED581">
  <path
    d="M11,13.5V21.5H3V13.5H11M9,15.5H5V19.5H9V15.5M12,2L17.5,11H6.5L12,2M12,5.86L10.08,9H13.92L12,5.86M17.5,13C20,13 22,15 22,17.5C22,20 20,22 17.5,22C15,22 13,20 13,17.5C13,15 15,13 17.5,13M17.5,15A2.5,2.5 0 0,0 15,17.5A2.5,2.5 0 0,0 17.5,20A2.5,2.5 0 0,0 20,17.5A2.5,2.5 0 0,0 17.5,15Z"/>
</svg>
